public/svg/logo.svg

<?xml version="1.0" encoding="UTF-8" standalone="no"?>
<svg
   xmlns:dc="http://purl.org/dc/elements/1.1/"
   xmlns:cc="http://creativecommons.org/ns#"
   xmlns:rdf="http://www.w3.org/1999/02/22-rdf-syntax-ns#"
   xmlns:svg="http://www.w3.org/2000/svg"
   xmlns="http://www.w3.org/2000/svg"
   xmlns:sodipodi="http://sodipodi.sourceforge.net/DTD/sodipodi-0.dtd"
   xmlns:inkscape="http://www.inkscape.org/namespaces/inkscape"
   style="isolation:isolate"
   viewBox="0 0 295.012 403.72198"
   width="295.01199pt"
   height="403.72198pt"
   version="1.1"
   id="svg2980"
   sodipodi:docname="logo.svg"
   inkscape:version="0.92.4 (5da689c313, 2019-01-14)">
  <metadata
     id="metadata2986">
    <rdf:RDF>
      <cc:Work
         rdf:about="">
        <dc:format>image/svg+xml</dc:format>
        <dc:type
           rdf:resource="http://purl.org/dc/dcmitype/StillImage" />
        <dc:title></dc:title>
      </cc:Work>
    </rdf:RDF>
  </metadata>
  <defs
     id="defs2984" />
  <sodipodi:namedview
     pagecolor="#ffffff"
     bordercolor="#666666"
     borderopacity="1"
     objecttolerance="10"
     gridtolerance="10"
     guidetolerance="10"
     inkscape:pageopacity="0"
     inkscape:pageshadow="2"
     inkscape:window-width="1920"
     inkscape:window-height="1044"
     id="namedview2982"
     showgrid="false"
     inkscape:zoom="1.251579"
     inkscape:cx="282.07076"
     inkscape:cy="277.73596"
     inkscape:window-x="1920"
     inkscape:window-y="0"
     inkscape:window-maximized="1"
     inkscape:current-layer="svg2980"
     fit-margin-top="0"
     fit-margin-left="0"
     fit-margin-right="0"
     fit-margin-bottom="0" />
  <g
     id="g2978"
     transform="translate(1.875,1.875)">
    <g
       id="g2972">
      <path
         d="M 291.262,145.631 C 291.262,65.291 225.971,0 145.631,0 65.291,0 0,65.291 0,145.631 c 0,84.709 87.864,198.786 126.942,245.631 9.708,11.651 27.427,11.651 37.136,0 39.32,-46.845 127.184,-160.922 127.184,-245.631 z"
         id="path2970"
         style="fill:#2374ab;stroke:#2374ab;stroke-width:3.75;stroke-miterlimit:4;stroke-dasharray:none;stroke-opacity:1;paint-order:normal"
         inkscape:connector-curvature="0" />
    </g>
    <g
       id="g2976"
       style="fill:#ffffff;fill-opacity:1">
      <path
         d="m 82.473,181.157 c 0,6.948 3.079,13.185 7.895,17.527 v 10.105 c 0,6.553 5.289,11.842 11.842,11.842 6.553,0 11.842,-5.289 11.842,-11.842 v -3.947 h 63.158 v 3.947 c 0,6.474 5.289,11.842 11.842,11.842 6.474,0 11.842,-5.289 11.842,-11.842 v -10.105 c 4.816,-4.342 7.895,-10.579 7.895,-17.527 V 102.21 c 0,-27.632 -28.263,-31.579 -63.158,-31.579 -34.895,0 -63.158,3.947 -63.158,31.579 z m 27.632,7.895 c -6.553,0 -11.842,-5.289 -11.842,-11.842 0,-6.553 5.289,-11.842 11.842,-11.842 6.552,0 11.842,5.289 11.842,11.842 0,6.553 -5.29,11.842 -11.842,11.842 z m 71.052,0 c -6.552,0 -11.842,-5.289 -11.842,-11.842 0,-6.553 5.29,-11.842 11.842,-11.842 6.553,0 11.842,5.289 11.842,11.842 0,6.553 -5.289,11.842 -11.842,11.842 z m 11.842,-47.368 H 98.263 V 102.21 h 94.736 z"
         id="path2974"
         inkscape:connector-curvature="0"
         style="fill:#ffffff;fill-opacity:1" />
    </g>
  </g>
</svg>

<svg xmlns="http://www.w3.org/2000/svg" style="isolation:isolate" viewBox="0 0 291.262 400" width="291.262pt"
     height="400pt">
    <g>
        <g>
            <path d=" M 291.262 145.631 C 291.262 65.291 225.971 0 145.631 0 C 65.291 0 0 65.291 0 145.631 C 0 230.34 87.864 344.417 126.942 391.262 C 136.65 402.913 154.369 402.913 164.078 391.262 C 203.398 344.417 291.262 230.34 291.262 145.631 Z "
                  fill="rgb(35,116,171)"/>
        </g>
        <g>
            <path d=" M 82.473 181.157 C 82.473 188.105 85.552 194.342 90.368 198.684 L 90.368 208.789 C 90.368 215.342 95.657 220.631 102.21 220.631 C 108.763 220.631 114.052 215.342 114.052 208.789 L 114.052 204.842 L 177.21 204.842 L 177.21 208.789 C 177.21 215.263 182.499 220.631 189.052 220.631 C 195.526 220.631 200.894 215.342 200.894 208.789 L 200.894 198.684 C 205.71 194.342 208.789 188.105 208.789 181.157 L 208.789 102.21 C 208.789 74.578 180.526 70.631 145.631 70.631 C 110.736 70.631 82.473 74.578 82.473 102.21 L 82.473 181.157 Z  M 110.105 189.052 C 103.552 189.052 98.263 183.763 98.263 177.21 C 98.263 170.657 103.552 165.368 110.105 165.368 C 116.657 165.368 121.947 170.657 121.947 177.21 C 121.947 183.763 116.657 189.052 110.105 189.052 Z  M 181.157 189.052 C 174.605 189.052 169.315 183.763 169.315 177.21 C 169.315 170.657 174.605 165.368 181.157 165.368 C 187.71 165.368 192.999 170.657 192.999 177.21 C 192.999 183.763 187.71 189.052 181.157 189.052 Z  M 192.999 141.684 L 98.263 141.684 L 98.263 102.21 L 192.999 102.21 L 192.999 141.684 Z "
                  fill="rgb(255,255,255)"/>
        </g>
    </g>
</svg>
